X: 261
T: Tall, Great Arm (Tom Brady's) 
C: B.Black 12/07
N: 202250
M: 6/8
L: 1/8
Q: 1/4=160
R: jig
K: G
e|"G"gfg "C"edc | "G"BGG G3 | "Am"EAA ABA | "D"FDD D3 |
"C"CEE EDE | "G"DGG GBc | "D"d^cd =cAF | "G"G3 G2 :|
A | "G"d^cd b2d | "Am"cBc a2c | "G"Bdd "C"edc | "G"Bcd "D"A3 |
"G"BAB g2B | "Am" cBc a2g | "D7"fdd cdf | "G"g3 g2 :|
%%%%%%%%%%%%%%%%%%%%%%%%%%%%%%
